X:153
T:Jig
S:Clannad
R:Jig
O:Ireland
M:6/8
K:C
G|\
ABA AGE|cBc c2d|e2e ede|g3 g2e|\
def gfe|dBA G2A|Bee dBG|A2B c2B::
Aaa agf|gag ged|eaa agf|g2a ged|\
eaf gfe|dBA G2A|Bee dBG|A2B c2B:|
